Numix/16/emotes/face-in-love.svg

<?xml version="1.0" encoding="UTF-8" standalone="no"?>
<svg
   xmlns:dc="http://purl.org/dc/elements/1.1/"
   xmlns:cc="http://creativecommons.org/ns#"
   xmlns:rdf="http://www.w3.org/1999/02/22-rdf-syntax-ns#"
   xmlns:svg="http://www.w3.org/2000/svg"
   xmlns="http://www.w3.org/2000/svg"
   xmlns:sodipodi="http://sodipodi.sourceforge.net/DTD/sodipodi-0.dtd"
   xmlns:inkscape="http://www.inkscape.org/namespaces/inkscape"
   width="16px"
   height="16px"
   viewBox="0 0 12 12"
   version="1.1"
   id="svg3025"
   inkscape:version="0.91 r"
   sodipodi:docname="face-in-love.svg">
  <metadata
     id="metadata3040">
    <rdf:RDF>
      <cc:Work
         rdf:about="">
        <dc:format>image/svg+xml</dc:format>
        <dc:type
           rdf:resource="http://purl.org/dc/dcmitype/StillImage" />
      </cc:Work>
    </rdf:RDF>
  </metadata>
  <defs
     id="defs3038" />
  <sodipodi:namedview
     pagecolor="#ffffff"
     bordercolor="#666666"
     borderopacity="1"
     objecttolerance="10"
     gridtolerance="10"
     guidetolerance="10"
     inkscape:pageopacity="0"
     inkscape:pageshadow="2"
     inkscape:window-width="640"
     inkscape:window-height="480"
     id="namedview3036" />
  <g
     id="surface1">
    <path
       style=" stroke:none;fill-rule:nonzero;fill:rgb(100%,85.098039%,36.078431%);fill-opacity:1;"
       d="M 11.25 6 C 11.25 8.484375 8.898438 10.5 6 10.5 C 3.101562 10.5 0.75 8.484375 0.75 6 C 0.75 3.515625 3.097656 1.5 6 1.5 C 8.902344 1.5 11.25 3.515625 11.25 6 Z M 11.25 6 "
       id="path3028" />
    <path
       style=" stroke:none;fill-rule:nonzero;fill:rgb(38.823529%,38.823529%,38.823529%);fill-opacity:1;"
       d="M 3.75 7.125 C 3.9375 8.066406 4.886719 8.71875 6 8.71875 C 7.117188 8.71875 8.066406 8.066406 8.25 7.125 L 7.875 7.125 C 7.738281 7.6875 6.972656 8.066406 6 8.066406 C 5.03125 8.066406 4.261719 7.6875 4.125 7.125 Z M 3.75 7.125 "
       id="path3030" />
    <path
       style=" stroke:none;fill-rule:nonzero;fill:rgb(100%,40%,40%);fill-opacity:1;"
       d="M 3.988281 6.195312 C 3.941406 6.140625 3.820312 6.035156 3.71875 5.960938 C 3.425781 5.738281 3.386719 5.707031 3.265625 5.597656 C 3.046875 5.394531 2.953125 5.1875 2.953125 4.914062 C 2.953125 4.777344 2.960938 4.726562 3 4.648438 C 3.066406 4.511719 3.160156 4.410156 3.28125 4.351562 C 3.363281 4.304688 3.40625 4.285156 3.550781 4.285156 C 3.699219 4.285156 3.730469 4.300781 3.820312 4.351562 C 3.925781 4.410156 4.035156 4.535156 4.058594 4.625 L 4.074219 4.679688 L 4.105469 4.601562 C 4.300781 4.175781 4.929688 4.179688 5.144531 4.613281 C 5.214844 4.753906 5.222656 5.042969 5.160156 5.210938 C 5.082031 5.425781 4.929688 5.589844 4.585938 5.84375 C 4.355469 6.007812 4.101562 6.257812 4.082031 6.292969 C 4.058594 6.332031 4.082031 6.296875 3.988281 6.195312 Z M 3.988281 6.195312 "
       id="path3032" />
    <path
       style=" stroke:none;fill-rule:nonzero;fill:rgb(100%,40%,40%);fill-opacity:1;"
       d="M 7.832031 6.195312 C 7.785156 6.140625 7.664062 6.035156 7.5625 5.960938 C 7.269531 5.738281 7.230469 5.707031 7.109375 5.597656 C 6.890625 5.394531 6.796875 5.1875 6.796875 4.914062 C 6.796875 4.777344 6.804688 4.726562 6.84375 4.648438 C 6.910156 4.511719 7.003906 4.410156 7.125 4.351562 C 7.207031 4.304688 7.25 4.285156 7.394531 4.285156 C 7.542969 4.285156 7.574219 4.300781 7.664062 4.351562 C 7.769531 4.410156 7.878906 4.535156 7.902344 4.625 L 7.917969 4.679688 L 7.949219 4.601562 C 8.144531 4.175781 8.773438 4.179688 8.988281 4.613281 C 9.058594 4.753906 9.066406 5.042969 9.003906 5.210938 C 8.925781 5.425781 8.773438 5.589844 8.429688 5.84375 C 8.199219 6.007812 7.945312 6.257812 7.925781 6.292969 C 7.902344 6.332031 7.925781 6.296875 7.832031 6.195312 Z M 7.832031 6.195312 "
       id="path3034" />
  </g>
</svg>

<svg xmlns="http://www.w3.org/2000/svg" width="16" height="16" viewBox="0 0 12 12">
 <g>
  <path d="m 11.25 6 c 0 2.484 -2.352 4.5 -5.25 4.5 c -2.898 0 -5.25 -2.02 -5.25 -4.5 c 0 -2.484 2.348 -4.5 5.25 -4.5 c 2.902 0 5.25 2.02 5.25 4.5 m 0 0" style="fill:#ffd85b;fill-opacity:1;stroke:none;fill-rule:nonzero"/>
  <path d="m 3.75 7.125 c 0.188 0.941 1.137 1.594 2.25 1.594 c 1.117 0 2.066 -0.652 2.25 -1.594 l -0.375 0 c -0.137 0.563 -0.902 0.941 -1.875 0.941 c -0.969 0 -1.738 -0.379 -1.875 -0.941 m -0.375 0" style="fill:#626262;fill-opacity:1;stroke:none;fill-rule:nonzero"/>
  <path d="m 3.988 6.195 c -0.047 -0.055 -0.168 -0.16 -0.27 -0.234 c -0.293 -0.223 -0.332 -0.254 -0.453 -0.363 c -0.219 -0.203 -0.313 -0.41 -0.313 -0.684 c 0 -0.137 0.008 -0.188 0.047 -0.266 c 0.066 -0.137 0.16 -0.238 0.281 -0.297 c 0.082 -0.047 0.125 -0.066 0.27 -0.066 c 0.148 0 0.18 0.016 0.27 0.066 c 0.105 0.059 0.215 0.184 0.238 0.273 l 0.016 0.055 l 0.031 -0.078 c 0.195 -0.426 0.824 -0.422 1.039 0.012 c 0.07 0.141 0.078 0.43 0.016 0.598 c -0.078 0.215 -0.23 0.379 -0.574 0.633 c -0.23 0.164 -0.484 0.414 -0.504 0.449 c -0.023 0.039 0 0.004 -0.094 -0.098 m 0 0" style="fill:#f66;fill-opacity:1;stroke:none;fill-rule:nonzero"/>
  <path d="m 7.832 6.195 c -0.047 -0.055 -0.168 -0.16 -0.27 -0.234 c -0.293 -0.223 -0.332 -0.254 -0.453 -0.363 c -0.219 -0.203 -0.313 -0.41 -0.313 -0.684 c 0 -0.137 0.008 -0.188 0.047 -0.266 c 0.066 -0.137 0.16 -0.238 0.281 -0.297 c 0.082 -0.047 0.125 -0.066 0.27 -0.066 c 0.148 0 0.18 0.016 0.27 0.066 c 0.105 0.059 0.215 0.184 0.238 0.273 l 0.016 0.055 l 0.031 -0.078 c 0.195 -0.426 0.824 -0.422 1.039 0.012 c 0.07 0.141 0.078 0.43 0.016 0.598 c -0.078 0.215 -0.23 0.379 -0.574 0.633 c -0.23 0.164 -0.484 0.414 -0.504 0.449 c -0.023 0.039 0 0.004 -0.094 -0.098 m 0 0" style="fill:#f66;fill-opacity:1;stroke:none;fill-rule:nonzero"/>
 </g>
</svg>
